contributed-vectors/rozetka.svg

<svg xmlns="http://www.w3.org/2000/svg" viewBox="0 0 192 192"><defs><clipPath id="a"><circle cx="96" cy="96" r="88" fill="none"/></clipPath></defs><g clip-path="url(#a)"><path fill="#98dc9a" d="M184 96.39A88 88 0 1 1 96.39 8 88 88 0 0 1 184 96.39Z"/><path fill="#56595b" d="M88 82.67c13.1-10.12 27.49-12.67 32.17-5.59 1.81 2.71 1.89 6.5.5 10.61 4.68-7.69 6.16-14.89 3.33-18.84-4.85-6.58-19.9-2.06-33.63 10.12a62.9 62.9 0 0 0-10.15 10.86A55.19 55.19 0 0 1 88 82.67ZM133.16 61.36c-5.83-34.23-31.07-14.57-38.3-3.87 10.52-7.16 28.68-11.11 38.3 3.87ZM80.28 48.62C79.16 10 55 37 48.62 46.3c8.51-8.3 23.87-14.99 31.66 2.32ZM57.29 95.92C64 97.16 71.18 88.68 73.4 76.83s-1.31-22.38-8-23.7-13.9 7.24-16.11 19.09 1.34 22.39 8 23.7Zm-6.17-23.45c2.06-10.86 8.31-18.76 14-17.61s8.63 10.78 6.66 21.64-8.31 18.77-14 17.61-8.71-10.78-6.66-21.64Z"/><path fill="#56595b" d="M63.21 81.69c2.55.57 5.34-2.55 6.33-6.92s-.33-8.39-2.88-8.88c-1.73-.41-3.53.9-4.85 3.12a2.55 2.55 0 0 1 1.19 3.3 2.45 2.45 0 0 1-2.79 1.48c-.54 3.86.7 7.32 3 7.9ZM42.16 102.67c-.65 14.81 24.75 60.32 55 60.9s52.69-82 52.69-82c-63.71 42.75-107.69 21.1-107.69 21.1Zm83.44 33.25c-7.89 14.15-17.67 25.76-28.61 25.51-6.82-.17-13.31-2.72-19.23-6.75 1.89-3.46 13.81-20.74 47.84-18.76Z"/></g></svg>

<svg xmlns="http://www.w3.org/2000/svg" xmlns:xlink="http://www.w3.org/1999/xlink" viewBox="0 0 192 192"><defs><clipPath id="a"><circle cx="96" cy="96" r="88" fill="none"/></clipPath></defs><g clip-path="url(#a)"><path d="M184,96.39A88,88,0,1,1,96.39,8,88,88,0,0,1,184,96.39Z" fill="#98dc9a"/><path d="M88,82.67C101.1,72.55,115.49,70,120.17,77.08c1.81,2.71,1.89,6.5.5,10.61C125.35,80,126.83,72.8,124,68.85c-4.85-6.58-19.9-2.06-33.63,10.12A62.9,62.9,0,0,0,80.22,89.83,55.19,55.19,0,0,1,88,82.67Z" fill="#56595b"/><path d="M133.16,61.36c-5.83-34.23-31.07-14.57-38.3-3.87C105.38,50.33,123.54,46.38,133.16,61.36Z" fill="#56595b"/><path d="M80.28,48.62C79.16,10,55,37,48.62,46.3,57.13,38,72.49,31.31,80.28,48.62Z" fill="#56595b"/><path d="M57.29,95.92C64,97.16,71.18,88.68,73.4,76.83s-1.31-22.38-8-23.7-13.9,7.24-16.11,19.09S50.63,94.61,57.29,95.92ZM51.12,72.47c2.06-10.86,8.31-18.76,14-17.61s8.63,10.78,6.66,21.64-8.31,18.77-14,17.61S49.07,83.33,51.12,72.47Z" fill="#56595b"/><path d="M63.21,81.69c2.55.57,5.34-2.55,6.33-6.92s-.33-8.39-2.88-8.88c-1.73-.41-3.53.9-4.85,3.12A2.55,2.55,0,0,1,63,72.31a2.45,2.45,0,0,1-2.79,1.48C59.67,77.65,60.91,81.11,63.21,81.69Z" fill="#56595b"/><path d="M42.16,102.67c-.65,14.81,24.75,60.32,55,60.9s52.69-82,52.69-82C86.14,124.32,42.16,102.67,42.16,102.67Zm83.44,33.25c-7.89,14.15-17.67,25.76-28.61,25.51-6.82-.17-13.31-2.72-19.23-6.75C79.65,151.22,91.57,133.94,125.6,135.92Z" fill="#56595b"/></g></svg>
